X:7646
T:Iron Bridge,The. HSJJ.109
M:4/4
L:1/8
Q:200
S:HSJ Jackson,Wyresdale,Lancs.1823
R:Reel
O:England
A:Lancashire
H:1823
Z:vmp.Chris Partington.
K:Bb
DFBF EGcd|ecdB Accd|DFBF EGce|dBAc dBB2:|!
|:dBdB e>fe>d|c>dcB Accd|DFBd GBeg|f>gfe dBB2:|]
